X:1
T:Title
%%score { ( 1 3 ) | 2 }
L:1/8
Q:1/4=94
M:3/4
K:Bb
V:1 treble nm="Grand Piano"
V:3 treble 
V:2 bass 
V:1
 [Fd]3 [Fd] [Ge][Fd] | c2 B2 G2 | F3 F FF | [DF]4 z2 | [Fd]3 [Fd] [Ge][Fd] | c2 B2 G2 | F3 F GA | %7
w: Chas.~Edw.~Pollock * * *|||||||
 [B,DB]4 z2 |[M:1/4] B>A |[M:3/4] [EG]4 z2 | [DF]4 z2 | [Fd]4 z2 | [Fc]4 z2 | [Fd]3 [Fd] [Ge][Fd] | %14
w: |||||||
 c2 B2 G2 | F3 F GA | [DB]4 z2 |] %17
w: |||
V:2
 [B,,B,]3 [B,,B,] [B,,B,][B,,B,] | [E,G,E]4 [E,B,E]2 | [F,B,D]3 [F,A,C] [F,B,D][F,CE] | %3
 [B,,B,]4 z2 | [B,,B,]3 [B,,B,] [B,,B,][B,,B,] | [E,G,E]4 [E,B,E]2 | %6
 [F,B,D]3 [F,A,C] [F,B,E][F,CE] | B,,4 z2 |[M:1/4][K:treble] D>F | %9
[M:3/4][K:bass] E,E, E,2[K:treble] G>E | B,,B,, B,,2 D>E | [B,,B,]B,, B,,2 [C,G,]2 | [F,A,]4 z2 | %13
 [B,,B,]3 [B,,B,] [B,,B,][B,,B,] | [E,G,E]4 [E,B,E]2 | [F,B,D]3 [F,A,C] [F,B,E][F,CE] | %16
 [B,,B,]4 z2 |] %17
V:3
 x6 | x6 | x6 | x6 | x6 | x6 | x6 | x6 |[M:1/4] x2 |[M:3/4] B,B, B,2 B>G | B,B, B,2 B>c | %11
 z B, B,2 [=Ec]2 | x6 | x6 | x6 | x6 | x6 |] %17

